svg/baby_male_0203m_outline.svg

<svg width="48" height="48" viewBox="0 0 48 48" fill="none" xmlns="http://www.w3.org/2000/svg">
<path fill-rule="evenodd" clip-rule="evenodd" d="M20.6478 3.99799C19.5838 4.04489 18.4248 4.45398 17.7088 5.45507C16.7218 7.12385 17.7818 7.96164 19.2638 8.47653C15.0408 9.76971 11.7619 12.7089 10.4059 16.4158C10.1079 16.3478 9.80229 16.3138 9.49599 16.3118C7.18332 16.3118 5.30854 18.1868 5.30854 20.4998C5.30854 22.8128 7.18332 24.6877 9.49599 24.6877C9.88719 24.6867 10.2759 24.6317 10.6519 24.5227C12.7429 29.3507 18.0558 32.5496 23.9937 32.5566C26.8947 32.5496 29.7236 31.7746 32.1046 30.3357C33.3996 31.7456 35.2256 32.5506 37.1405 32.5546C40.9255 32.5546 43.9935 29.4857 43.9935 25.7007C43.9905 24.1977 43.4935 22.7378 42.5795 21.5448C42.6685 21.2038 42.7145 20.8528 42.7165 20.4998C42.7165 18.1868 40.8415 16.3118 38.5285 16.3118C38.2155 16.3138 37.9035 16.3508 37.5995 16.4218C35.7236 11.2659 30.2186 7.76124 23.9937 7.75974C23.6357 7.76104 23.2787 7.77404 22.9217 7.79874C22.0437 7.15215 17.9298 7.33954 19.6878 5.74796C21.2287 4.48268 23.4027 5.10667 20.5508 6.54295C24.8727 5.55087 22.9907 3.89509 20.6478 3.99799ZM24.3237 8.26753C31.6256 8.27123 36.4186 13.3809 37.2865 17.0448C39.0925 16.4188 42.1275 17.3898 42.1925 20.5308C42.1925 20.7028 42.1765 20.8708 42.1495 21.0348C40.8555 19.6428 39.0415 18.8498 37.1405 18.8478C33.3556 18.8488 30.2886 21.9168 30.2886 25.7007C30.2916 27.2277 30.8036 28.7097 31.7436 29.9117C29.4396 31.3456 26.8387 32.1576 24.6497 32.0346C17.6658 32.0306 12.5189 28.3907 10.9449 23.9157C8.8299 24.6437 6.23493 23.7157 5.83004 20.5428C5.89994 18.1798 8.34651 16.0248 10.7029 17.0818C12.3389 12.3269 17.0668 8.27493 24.3237 8.26753ZM20.0138 17.0118C19.1798 17.0108 18.5038 17.6858 18.5038 18.5198C18.5038 19.3528 19.1798 20.0278 20.0138 20.0268C20.8457 20.0268 21.5207 19.3518 21.5207 18.5198C21.5207 17.6868 20.8457 17.0118 20.0138 17.0118ZM28.0137 17.0118C27.1797 17.0108 26.5037 17.6858 26.5037 18.5198C26.5037 19.3528 27.1797 20.0278 28.0137 20.0268C28.8456 20.0268 29.5206 19.3518 29.5206 18.5198C29.5206 17.6868 28.8456 17.0118 28.0137 17.0118ZM37.1405 19.2828C39.0225 19.2858 40.8095 20.1148 42.0265 21.5508L42.0325 21.5568C42.1535 21.6998 42.2685 21.8488 42.3765 22.0018C43.1435 23.0827 43.5575 24.3747 43.5605 25.7007C43.5605 29.2457 40.6865 32.1186 37.1425 32.1186C35.3776 32.1166 33.6916 31.3886 32.4796 30.1047C32.4716 30.0957 32.4636 30.0857 32.4546 30.0757C32.3366 29.9507 32.2226 29.8197 32.1146 29.6857L32.1126 29.6877C31.2146 28.5527 30.7256 27.1477 30.7266 25.7007C30.7266 22.1578 33.5976 19.2848 37.1405 19.2828ZM36.8025 19.6558C35.5886 19.6938 34.4686 20.3258 33.8116 21.3478C32.7136 23.0577 33.2126 25.3337 34.9236 26.4317C35.5986 26.8617 36.3946 27.0607 37.1925 26.9977L37.8115 29.8357L36.3766 29.4837L38.5995 31.5406L39.8255 28.7297L38.6615 29.6347L38.0485 26.8317C38.8555 26.5687 39.5465 26.0357 40.0055 25.3217C41.1025 23.6117 40.6075 21.3358 38.8975 20.2378C38.2745 19.8378 37.5435 19.6348 36.8025 19.6558ZM36.9095 20.5268C37.4465 20.5268 37.9725 20.6808 38.4255 20.9708C39.7305 21.8078 40.1085 23.5457 39.2705 24.8517C38.4335 26.1567 36.6976 26.5347 35.3926 25.6967C34.0876 24.8587 33.7106 23.1227 34.5486 21.8178C35.0656 21.0138 35.9536 20.5268 36.9095 20.5268ZM19.1658 23.6447C18.9188 23.6667 18.6958 23.9087 18.7288 24.3027C18.9318 26.2807 21.2367 27.8117 24.0137 27.8137C26.7917 27.8137 29.0986 26.2817 29.3026 24.3027C28.1317 25.9557 26.3007 27.0367 24.0137 27.0837C21.7997 27.0827 19.9518 25.8767 19.7518 24.3027C19.6848 23.8187 19.4128 23.6217 19.1658 23.6447ZM7.86691 35.0956C7.03882 35.0956 6.40453 35.3696 5.96263 35.9196C5.52424 36.4696 5.30444 37.2766 5.30444 38.3376V39.7355C5.31484 40.7555 5.53984 41.5375 5.97823 42.0835C6.41663 42.6295 7.04852 42.9035 7.87671 42.9035C8.7152 42.9035 9.35189 42.6245 9.78679 42.0675C10.2217 41.5115 10.4387 40.7085 10.4387 39.6575V38.2596C10.4287 37.2396 10.2057 36.4586 9.76729 35.9156C9.32889 35.3696 8.695 35.0956 7.86691 35.0956ZM13.9526 35.0956C13.4416 35.0956 12.9836 35.2066 12.5797 35.4256C12.1757 35.6416 11.8627 35.9396 11.6407 36.3216C11.4207 36.7046 11.3117 37.1266 11.3117 37.5896H12.8256C12.8256 37.2066 12.9216 36.9006 13.1166 36.6676C13.3156 36.4306 13.5846 36.3116 13.9256 36.3116C14.2416 36.3116 14.4876 36.4086 14.6576 36.6036C14.8286 36.7946 14.9136 37.0606 14.9136 37.3976C14.9136 37.6446 14.8316 37.9046 14.6676 38.1796C14.5076 38.4546 14.2586 38.7775 13.9216 39.1455L11.4627 41.7655V42.7985H16.6716V41.5835H13.4036L15.1326 39.7615C15.6056 39.2425 15.9396 38.7896 16.1346 38.3996C16.3296 38.0106 16.4276 37.6276 16.4276 37.2516C16.4276 36.5656 16.2076 36.0356 15.7726 35.6596C15.3416 35.2836 14.7356 35.0956 13.9526 35.0956ZM24.2965 35.0956C23.4685 35.0956 22.8335 35.3696 22.3925 35.9196C21.9535 36.4696 21.7335 37.2766 21.7335 38.3376V39.7355C21.7445 40.7555 21.9695 41.5375 22.4075 42.0835C22.8465 42.6295 23.4795 42.9035 24.3085 42.9035C25.1465 42.9035 25.7835 42.6245 26.2185 42.0675C26.6535 41.5115 26.8705 40.7085 26.8705 39.6575V38.2596C26.8605 37.2396 26.6355 36.4586 26.1965 35.9156C25.7585 35.3696 25.1245 35.0956 24.2965 35.0956ZM30.2944 35.0956C29.8314 35.0956 29.4074 35.1836 29.0204 35.3606C28.6384 35.5386 28.3385 35.7866 28.1225 36.1036C27.9105 36.4166 27.8045 36.7706 27.8045 37.1676H29.3114C29.3114 36.9136 29.4104 36.7086 29.6044 36.5526C29.7994 36.3926 30.0404 36.3116 30.3294 36.3116C30.6494 36.3116 30.9004 36.3976 31.0814 36.5676C31.2654 36.7386 31.3584 36.9766 31.3584 37.2826C31.3584 37.5996 31.2654 37.8536 31.0814 38.0446C30.8974 38.2356 30.6144 38.3316 30.2314 38.3316H29.4274V39.5115H30.2264C31.0614 39.5115 31.4784 39.8895 31.4784 40.6475C31.4784 40.9615 31.3764 41.2145 31.1714 41.4055C30.9694 41.5935 30.6874 41.6875 30.3294 41.6875C30.0164 41.6875 29.7524 41.5965 29.5364 41.4155C29.3244 41.2345 29.2184 41.0015 29.2184 40.7165H27.7105C27.7105 41.3735 27.9505 41.9045 28.4315 42.3045C28.9144 42.7045 29.5354 42.9035 30.2944 42.9035C31.1054 42.9035 31.7544 42.6995 32.2454 42.2925C32.7394 41.8855 32.9874 41.3445 32.9874 40.6695C32.9874 40.2515 32.8814 39.8895 32.6694 39.5835C32.4604 39.2775 32.1424 39.0495 31.7144 38.8955C32.0584 38.7396 32.3364 38.5146 32.5484 38.2226C32.7604 37.9296 32.8664 37.6096 32.8664 37.2616C32.8664 36.5866 32.6384 36.0586 32.1834 35.6756C31.7274 35.2896 31.0984 35.0956 30.2944 35.0956ZM34.1924 35.2006V42.7985H35.7594V40.7225L35.6014 37.1426L37.6473 42.7985H38.7243L40.7743 37.1366L40.6183 40.7225V42.7985H42.1883V35.2006H40.1323L38.1903 40.7125L36.2394 35.2006H34.1924ZM7.86671 36.3156C8.23201 36.3156 8.4989 36.4606 8.6694 36.7496C8.8434 37.0346 8.9311 37.4926 8.9311 38.1226V39.9295C8.9242 40.5245 8.8388 40.9645 8.6753 41.2535C8.5117 41.5425 8.24531 41.6875 7.87651 41.6875C7.50412 41.6875 7.23252 41.5375 7.06202 41.2375C6.89502 40.9355 6.81202 40.4745 6.81202 39.8545V38.0076C6.82242 37.4266 6.91062 37.0016 7.07762 36.7296C7.24812 36.4556 7.51182 36.3156 7.86671 36.3156ZM24.2965 36.3156C24.6615 36.3156 24.9305 36.4606 25.1015 36.7496C25.2755 37.0346 25.3605 37.4926 25.3605 38.1226V39.9295C25.3535 40.5245 25.2705 40.9645 25.1065 41.2535C24.9435 41.5425 24.6765 41.6875 24.3085 41.6875C23.9355 41.6875 23.6645 41.5375 23.4935 41.2375C23.3265 40.9355 23.2435 40.4745 23.2435 39.8545V38.0076C23.2545 37.4266 23.3425 37.0016 23.5095 36.7296C23.6795 36.4556 23.9415 36.3156 24.2965 36.3156ZM17.6576 38.9375V40.1535H20.5976V38.9375H17.6576Z" fill="#333333"/>
</svg>

<?xml version="1.0" encoding="UTF-8" standalone="no"?>
<!-- Created with Inkscape (http://www.inkscape.org/) -->
<svg id="svg8" xmlns:rdf="http://www.w3.org/1999/02/22-rdf-syntax-ns#" xmlns="http://www.w3.org/2000/svg" xmlns:osb="http://www.openswatchbook.org/uri/2009/osb" height="48" width="48" version="1.1" xmlns:cc="http://creativecommons.org/ns#" viewBox="0 0 12.7 12.7" xmlns:dc="http://purl.org/dc/elements/1.1/">
 <title id="title4753">UIO-icon</title>
 <metadata id="metadata5">
  <rdf:RDF>
   <cc:Work rdf:about="">
    <dc:format>image/svg+xml</dc:format>
    <dc:type rdf:resource="http://purl.org/dc/dcmitype/StillImage"/>
    <dc:title>UIO-icon</dc:title>
    <dc:creator>
     <cc:Agent>
      <dc:title>Joaquín Urbano</dc:title>
     </cc:Agent>
    </dc:creator>
    <dc:rights>
     <cc:Agent>
      <dc:title>GPL</dc:title>
     </cc:Agent>
    </dc:rights>
   </cc:Work>
  </rdf:RDF>
 </metadata>
 <g id="layer1" transform="translate(0,-284.3)">
  <path id="circle5040" d="m20.648 3.998c-1.064 0.0469-2.223 0.456-2.939 1.4571-0.987 1.6688 0.073 2.5066 1.555 3.0215-4.223 1.2932-7.502 4.2324-8.858 7.9394-0.298-0.068-0.6036-0.102-0.9099-0.104-2.3127 0-4.1875 1.875-4.1875 4.188s1.8748 4.188 4.1875 4.188c0.3912-0.001 0.7799-0.056 1.1559-0.165 2.091 4.828 7.404 8.027 13.342 8.034 2.901-0.007 5.73-0.782 8.111-2.221 1.295 1.41 3.121 2.215 5.036 2.219 3.785 0 6.853-3.069 6.853-6.854-0.003-1.503-0.5-2.963-1.414-4.156 0.089-0.341 0.135-0.692 0.137-1.045 0-2.313-1.875-4.188-4.188-4.188-0.313 0.002-0.625 0.039-0.929 0.11-1.876-5.156-7.381-8.6607-13.606-8.6622-0.358 0.0013-0.715 0.0143-1.072 0.039-0.878-0.6466-4.992-0.4592-3.234-2.0508 1.541-1.2653 3.715-0.6413 0.863 0.795 4.322-0.9921 2.44-2.6479 0.097-2.545zm3.676 4.2696c7.302 0.0037 12.095 5.1134 12.963 8.7774 1.806-0.626 4.841 0.345 4.906 3.486 0 0.172-0.016 0.34-0.043 0.504-1.294-1.392-3.108-2.185-5.009-2.187-3.785 0.001-6.852 3.069-6.852 6.853 0.003 1.527 0.515 3.009 1.455 4.211-2.304 1.434-4.905 2.246-7.094 2.123-6.984-0.004-12.131-3.644-13.705-8.119-2.115 0.728-4.71-0.2-5.1149-3.373 0.0699-2.363 2.5165-4.518 4.8729-3.461 1.636-4.755 6.364-8.807 13.621-8.8144zm-4.31 8.7444c-0.834-0.001-1.51 0.674-1.51 1.508 0 0.833 0.676 1.508 1.51 1.507 0.832 0 1.507-0.675 1.507-1.507 0-0.833-0.675-1.508-1.507-1.508zm8 0c-0.834-0.001-1.51 0.674-1.51 1.508 0 0.833 0.676 1.508 1.51 1.507 0.832 0 1.507-0.675 1.507-1.507 0-0.833-0.675-1.508-1.507-1.508zm9.127 2.271c1.882 0.003 3.669 0.832 4.886 2.268l0.006 0.006c0.121 0.143 0.236 0.292 0.344 0.445 0.767 1.081 1.181 2.373 1.184 3.699 0 3.545-2.874 6.418-6.418 6.418-1.765-0.002-3.451-0.73-4.663-2.014-0.008-0.009-0.016-0.019-0.025-0.029-0.118-0.125-0.232-0.256-0.34-0.39l-0.002 0.002c-0.898-1.135-1.387-2.54-1.386-3.987 0-3.543 2.871-6.416 6.414-6.418zm-0.338 0.373c-1.214 0.038-2.334 0.67-2.991 1.692-1.098 1.71-0.599 3.986 1.112 5.084 0.675 0.43 1.471 0.629 2.269 0.566l0.619 2.838-1.435-0.352 2.223 2.057 1.226-2.811-1.164 0.905-0.613-2.803c0.807-0.263 1.498-0.796 1.957-1.51 1.097-1.71 0.602-3.986-1.108-5.084-0.623-0.4-1.354-0.603-2.095-0.582zm0.107 0.871c0.537 0 1.063 0.154 1.516 0.444 1.305 0.837 1.683 2.575 0.845 3.881-0.837 1.305-2.573 1.683-3.878 0.845s-1.682-2.574-0.844-3.879c0.517-0.804 1.405-1.291 2.361-1.291zm-17.744 3.118c-0.247 0.022-0.47 0.264-0.437 0.658 0.203 1.978 2.508 3.509 5.285 3.511 2.778 0 5.085-1.532 5.289-3.511-1.171 1.653-3.002 2.734-5.289 2.781-2.214-0.001-4.062-1.207-4.262-2.781-0.067-0.484-0.339-0.681-0.586-0.658zm-11.299 11.451c-0.8281 0-1.4624 0.274-1.9043 0.824-0.4384 0.55-0.6582 1.357-0.6582 2.418v1.398c0.0104 1.02 0.2354 1.802 0.6738 2.348s1.0703 0.82 1.8985 0.82c0.8385 0 1.4752-0.279 1.9101-0.836 0.4349-0.556 0.6519-1.359 0.6519-2.41v-1.398c-0.01-1.02-0.233-1.801-0.6714-2.344-0.4384-0.546-1.0723-0.82-1.9004-0.82zm6.0858 0c-0.511 0-0.969 0.111-1.373 0.33-0.404 0.216-0.717 0.514-0.939 0.896-0.22 0.383-0.329 0.805-0.329 1.268h1.514c0-0.383 0.096-0.689 0.291-0.922 0.199-0.237 0.468-0.356 0.809-0.356 0.316 0 0.562 0.097 0.732 0.292 0.171 0.191 0.256 0.457 0.256 0.794 0 0.247-0.082 0.507-0.246 0.782-0.16 0.275-0.409 0.598-0.746 0.966l-2.459 2.62v1.033h5.209v-1.215h-3.268l1.729-1.822c0.473-0.519 0.807-0.972 1.002-1.362 0.195-0.389 0.293-0.772 0.293-1.148 0-0.686-0.22-1.216-0.655-1.592-0.431-0.376-1.037-0.564-1.82-0.564zm10.344 0c-0.828 0-1.463 0.274-1.904 0.824-0.439 0.55-0.659 1.357-0.659 2.418v1.398c0.011 1.02 0.236 1.802 0.674 2.348 0.439 0.546 1.072 0.82 1.901 0.82 0.838 0 1.475-0.279 1.91-0.836 0.435-0.556 0.652-1.359 0.652-2.41v-1.398c-0.01-1.02-0.235-1.801-0.674-2.344-0.438-0.546-1.072-0.82-1.9-0.82zm5.998 0c-0.463 0-0.887 0.088-1.274 0.265-0.382 0.178-0.682 0.426-0.898 0.743-0.212 0.313-0.318 0.667-0.318 1.064h1.507c0-0.254 0.099-0.459 0.293-0.615 0.195-0.16 0.436-0.241 0.725-0.241 0.32 0 0.571 0.086 0.752 0.256 0.184 0.171 0.277 0.409 0.277 0.715 0 0.317-0.093 0.571-0.277 0.762s-0.467 0.287-0.85 0.287h-0.804v1.18h0.799c0.835 0 1.252 0.378 1.252 1.136 0 0.314-0.102 0.567-0.307 0.758-0.202 0.188-0.484 0.282-0.842 0.282-0.313 0-0.577-0.091-0.793-0.272-0.212-0.181-0.318-0.414-0.318-0.699h-1.508c0 0.657 0.24 1.188 0.721 1.588 0.483 0.4 1.104 0.599 1.863 0.599 0.811 0 1.46-0.204 1.951-0.611 0.494-0.407 0.742-0.948 0.742-1.623 0-0.418-0.106-0.78-0.318-1.086-0.209-0.306-0.527-0.534-0.955-0.688 0.344-0.156 0.622-0.381 0.834-0.673 0.212-0.293 0.318-0.613 0.318-0.961 0-0.675-0.228-1.203-0.683-1.586-0.456-0.386-1.085-0.58-1.889-0.58zm3.898 0.105v7.598h1.567v-2.076l-0.158-3.58 2.046 5.656h1.077l2.05-5.662-0.156 3.586v2.076h1.57v-7.598h-2.056l-1.942 5.512-1.951-5.512h-2.047zm-26.326 1.115c0.3653 0 0.6322 0.145 0.8027 0.434 0.174 0.285 0.2617 0.743 0.2617 1.373v1.807c-0.0069 0.595-0.0923 1.035-0.2558 1.324-0.1636 0.289-0.43 0.434-0.7988 0.434-0.3724 0-0.644-0.15-0.8145-0.45-0.167-0.302-0.25-0.763-0.25-1.383v-1.847c0.0104-0.581 0.0986-1.006 0.2656-1.278 0.1705-0.274 0.4342-0.414 0.7891-0.414zm16.43 0c0.365 0 0.634 0.145 0.805 0.434 0.174 0.285 0.259 0.743 0.259 1.373v1.807c-0.007 0.595-0.09 1.035-0.254 1.324-0.163 0.289-0.43 0.434-0.798 0.434-0.373 0-0.644-0.15-0.815-0.45-0.167-0.302-0.25-0.763-0.25-1.383v-1.847c0.011-0.581 0.099-1.006 0.266-1.278 0.17-0.274 0.432-0.414 0.787-0.414zm-6.639 2.622v1.216h2.94v-1.216h-2.94z" fill-rule="evenodd" transform="matrix(.26458 0 0 .26458 0 284.3)" fill="#333"/>
 </g>
</svg>
